X: 497
T: Miss Menage's Hornpipe
%R: hornpipe, reel
B: "Preston's Twenty Four Country Dances for the Year 1803", Tho. Preston, ed. p.209 #1
F: http://folkopedia.efdss.org/images/archive/0/02/20121211105513%21Preston_24_1803.PDF
F: http://folkopedia.efdss.org/wiki/File:Preston_24_1803.PDF
Z: 2014 John Chambers <jc:trillian.mit.edu>
M: C
L: 1/8
K: A
% - - - - - - - - - - - - - - - - - - - - - - - - -
ed |\
cdBc A2Bc | decd B2ed |\
cefe Befe | decd B2ed |\
cdBc A2Bc |
decd B2ed |\
cedc BdcB | A2A2 A2 :|\
|: EF |\
GABc d2cB | cAce a2ag |
gffe eddc | BAGA B2ed |\
cdBc A2Bc | decd B2ed |\
cedc BdcB | A2A2 A2 :|
% - - - - - - - - - - - - - - - - - - - - - - - - -
%%begintext align
%% 1st Lady set outsides with 2d & 3d Gent.n 1st
%% Gent.n do the same with the Ladies, lead down
%% the middle, turn courners & lead outsides.
%%endtext

%%sep 1 1 500
%%sep 1 1 500
